tools/icongen/assets/Folder.svg

<svg xmlns="http://www.w3.org/2000/svg" width="14" height="14" fill="none" viewBox="0 0 14 14"><path fill="#EDF3FF" stroke="black" d="M1.63379 1.5h3.48828c.10187.00007.20056.03103.2832.08789l.07715.06641 1.62305 1.6914.14844.1543H12c.8284 0 1.5.67157 1.5 1.5v6.1338c-.0002.8193-.5686 1.3662-1.1338 1.3662H1.63379C1.0686 12.5.500211 11.9531.5 11.1338V2.86621c.000197-.7681.499269-1.29723 1.02734-1.36035L1.63379 1.5Z"/></svg>

<svg width="14" height="14" viewBox="0 0 14 14" fill="none" xmlns="http://www.w3.org/2000/svg">
<path d="M1.63379 1.5H5.12207C5.22394 1.50007 5.32263 1.53103 5.40527 1.58789L5.48242 1.6543L7.10547 3.3457L7.25391 3.5H12C12.8284 3.5 13.5 4.17157 13.5 5V11.1338C13.4998 11.9531 12.9314 12.5 12.3662 12.5H1.63379C1.0686 12.5 0.500211 11.9531 0.5 11.1338V2.86621C0.500197 2.09811 0.999269 1.56898 1.52734 1.50586L1.63379 1.5Z" fill="#EDF3FF" stroke="black"/>
</svg>
